app/images/icons/blog-instagram.svg

<svg xmlns="http://www.w3.org/2000/svg" preserveAspectRatio="xMidYMid" width="13.63" height="13.66"><path d="M13.42 10.779c-.424 1.558-1.44 2.479-3.016 2.732-.589.095-2.18.152-3.768.152-1.626 0-3.25-.06-3.796-.202-1.549-.4-2.473-1.409-2.719-2.978-.184-1.152-.203-6.505.129-7.668C.684 1.301 1.695.412 3.227.16 3.921.046 5.279.006 6.65.006c1.275 0 2.561.035 3.335.077.938.05 1.796.351 2.493 1.021.665.636 1.005 1.431 1.09 2.331.102 1.074.168 6.154-.148 7.344zM12.339 3.55c-.122-1.202-.857-1.991-2.045-2.178-.589-.089-2.006-.129-3.416-.129-1.36 0-2.714.037-3.309.101-1.191.138-1.992.873-2.183 2.058-.195 1.255-.193 5.951-.047 6.895.152.981.707 1.656 1.686 1.93.53.149 2.118.202 3.674.202 1.433 0 2.84-.045 3.368-.103 1.203-.132 1.998-.872 2.188-2.068.196-1.201.196-5.584.084-6.708zm-1.857.471a.82.82 0 01.008-1.639h.009c.451 0 .815.367.812.822a.828.828 0 01-.829.817zm-3.69 6.319a3.469 3.469 0 01-3.474-3.505A3.53 3.53 0 016.85 3.336a3.471 3.471 0 013.473 3.505 3.535 3.535 0 01-3.531 3.499zm.065-5.77h-.02a2.287 2.287 0 00-2.284 2.243A2.244 2.244 0 006.779 9.1l.02.001c1.242 0 2.264-1 2.285-2.244A2.243 2.243 0 006.857 4.57z" fill="#a1a1a1" fill-rule="evenodd"/></svg>

<svg xmlns="http://www.w3.org/2000/svg" xmlns:xlink="http://www.w3.org/1999/xlink" preserveAspectRatio="xMidYMid" width="13.63" height="13.66" viewBox="0 0 13.63 13.66">
  <defs>
    <style>
      .cls-1 {
        fill: #a1a1a1;
        fill-rule: evenodd;
      }
    </style>
  </defs>
  <path d="M13.420,10.779 C12.996,12.337 11.980,13.258 10.404,13.511 C9.815,13.606 8.224,13.663 6.636,13.663 C5.010,13.663 3.386,13.603 2.840,13.461 C1.291,13.061 0.367,12.052 0.121,10.483 C-0.063,9.331 -0.082,3.978 0.250,2.815 C0.684,1.301 1.695,0.412 3.227,0.160 C3.921,0.046 5.279,0.006 6.650,0.006 C7.925,0.006 9.211,0.041 9.985,0.083 C10.923,0.133 11.781,0.434 12.478,1.104 C13.143,1.740 13.483,2.535 13.568,3.435 C13.670,4.509 13.736,9.589 13.420,10.779 ZM12.339,3.550 C12.217,2.348 11.482,1.559 10.294,1.372 C9.705,1.283 8.288,1.243 6.878,1.243 C5.518,1.243 4.164,1.280 3.569,1.344 C2.378,1.482 1.577,2.217 1.386,3.402 C1.191,4.657 1.193,9.353 1.339,10.297 C1.491,11.278 2.046,11.953 3.025,12.227 C3.555,12.376 5.143,12.429 6.699,12.429 C8.132,12.429 9.539,12.384 10.067,12.326 C11.270,12.194 12.065,11.454 12.255,10.258 C12.451,9.057 12.451,4.674 12.339,3.550 ZM10.482,4.021 C10.027,4.016 9.667,3.648 9.671,3.199 C9.674,2.747 10.039,2.382 10.490,2.382 L10.499,2.382 C10.950,2.382 11.314,2.749 11.311,3.204 C11.307,3.654 10.937,4.021 10.482,4.021 ZM6.792,10.340 C4.855,10.340 3.304,8.771 3.318,6.835 C3.334,4.899 4.914,3.330 6.850,3.336 C8.781,3.336 10.338,4.905 10.323,6.841 C10.309,8.771 8.728,10.340 6.792,10.340 ZM6.857,4.570 L6.837,4.570 C5.596,4.570 4.573,5.569 4.553,6.813 C4.533,8.064 5.528,9.090 6.779,9.100 L6.799,9.101 C8.041,9.101 9.063,8.101 9.084,6.857 C9.104,5.601 8.108,4.581 6.857,4.570 Z" class="cls-1"/>
</svg>
